X:1
T:Wasilla, LMD
T:Wasilla, LMD
T:Owen Foulkes Pugh, 1905
T:Public Domain Courtesy of the Cyber Hymnal™
C:Owen Foulkes Pugh, 1905
Z:Public Domain
Z:Courtesy of the Cyber Hymnal™
%%score ( 1 2 ) ( 3 4 )
L:1/8
Q:1/4=92
M:3/4
K:F
V:1 treble 
V:2 treble 
V:3 bass 
V:4 bass 
V:1
 [CA][B,G] [A,F] | [A,C]3 [A,F] [B,G][CA] | [B,D]3 [B,D] [B,D][B,G] | [=B,G]3 [B,F] [B,E][B,F] | %4
 [B,G]3 [CA] [B,G][A,F] | [A,C]3 [A,F] [B,G][_EA] | [DB]3 [FA] [Ec][DB] | [CFA][DB] [CA]3 [B,G] | %8
 [A,F]3 [Fc] [Fc][Fc] | [Fc]3 [Fc] [Fd][F=B] | [Fc]3 [Fc] [FA]F | [FA][Ac] !fermata![Be]3 [Bd] | %12
 [Ac]3 [Ac] [Ac][Ac] | [Bc]3 [Ac] [Ad][^G=B] | [Ac]3 [Ac] [Bd][Ac] | [FA][FB] [FA]3 [EG] | F3 |] %17
V:2
 x3 | x6 | x6 | x6 | x6 | x6 | x6 | x6 | x6 | x6 | x5 F | x6 | x6 | x6 | x6 | x6 | F3 |] %17
V:3
 z3 | (z C, F,) z3 | z D, F, z3 | [G,,D,G,=B,]2 z [G,,G,B,]2 z | (z E, G,) z3 | z C, F, z3 | %6
 z D, F, z3 | [F,,C,F,] z (F,F, E,)E, | [F,,C,F,]3 [F,A,] [F,A,][F,A,] | A,3 [F,A,] [F,A,][F,^G,] | %10
 A,3 [F,A,] [F,C][A,,F,C] | [C,C][C,C] !fermata![C,C]3 [C,E] | [F,F]3 [F,F] [F,C][F,F] | %13
 E3 [F,F] [F,F][F,F] | F3 [F,F] [F,F][F,C] | C[C,D] [C,C]3 [C,B,] | [F,A,]3 |] %17
V:4
 x3 | F,,3 x3 | B,,3 x3 | x6 | C,3 x3 | F,,3 x3 | B,,3 x3 | x2 C,4 | x6 | (F,C, F,) x3 | %10
 (F,C, F,) x3 | x6 | x6 | (E,C, G,) x3 | (F,C, F,) x3 | x6 | x3 |] %17

